contributed-vectors/one__plus_notes.svg

<svg xmlns="http://www.w3.org/2000/svg" xml:space="preserve" style="fill-rule:evenodd;clip-rule:evenodd;stroke-linejoin:round;stroke-miterlimit:2" viewBox="0 0 192 192"><path d="M151.5 10.5c0-5.519-4.481-10-10-10h-107c-5.519 0-10 4.481-10 10v155c0 5.519 4.481 10 10 10h107c5.519 0 10-4.481 10-10v-155Z" style="fill:#f8c18c" transform="translate(8 8)"/><path d="M106.798 48.41c0-.833-.327-1.632-.908-2.221a3.077 3.077 0 0 0-2.191-.92H89.39c-.822 0-1.61.331-2.191.92a3.164 3.164 0 0 0-.908 2.221v78.885h20.507V48.41Z" style="fill:#fff" transform="rotate(45 91.148 93.22) scale(1 .98633)"/><path d="M95.747 129.558c.124-.401.406-.66.717-.66.312 0 .594.259.718.66a858154.1 858154.1 0 0 0 5.549 17.897H90.197l5.55-17.897Z" style="fill:#4a4a4a" transform="rotate(44.999 -166.13 58.51) scale(.47408 -.33774)"/><path d="m58.168 129.631 6.681-16.981 14.501 14.501-16.981 6.681-4.201-4.201Z" style="fill:#d8d8d8"/></svg>

<?xml version="1.0" encoding="UTF-8" standalone="no"?>
<!DOCTYPE svg PUBLIC "-//W3C//DTD SVG 1.1//EN" "http://www.w3.org/Graphics/SVG/1.1/DTD/svg11.dtd">
<svg width="100%" height="100%" viewBox="0 0 192 192" version="1.1" xmlns="http://www.w3.org/2000/svg" xmlns:xlink="http://www.w3.org/1999/xlink" xml:space="preserve" xmlns:serif="http://www.serif.com/" style="fill-rule:evenodd;clip-rule:evenodd;stroke-linejoin:round;stroke-miterlimit:2;">
    <g id="Layer1">
        <g transform="matrix(1,0,0,1,8,8)">
            <path d="M151.5,10.5C151.5,4.981 147.019,0.5 141.5,0.5L34.5,0.5C28.981,0.5 24.5,4.981 24.5,10.5L24.5,165.5C24.5,171.019 28.981,175.5 34.5,175.5L141.5,175.5C147.019,175.5 151.5,171.019 151.5,165.5L151.5,10.5Z" style="fill:rgb(248,193,140);"/>
        </g>
        <g transform="matrix(0.707107,0.707107,-0.707107,0.707107,93.216,-38.0997)">
            <g transform="matrix(1,0,0,0.986328,0.246844,1.09953)">
                <path d="M106.798,48.41C106.798,47.577 106.471,46.778 105.89,46.189C105.309,45.6 104.521,45.269 103.699,45.269C99.832,45.269 93.257,45.269 89.39,45.269C88.568,45.269 87.78,45.6 87.199,46.189C86.618,46.778 86.291,47.577 86.291,48.41C86.291,63.442 86.291,127.295 86.291,127.295L106.798,127.295L106.798,48.41Z" style="fill:white;"/>
            </g>
            <g transform="matrix(0.474084,1.66974e-17,-1.66974e-17,-0.33774,51.0592,193.188)">
                <path d="M95.747,129.558C95.871,129.157 96.153,128.898 96.464,128.898C96.776,128.898 97.058,129.157 97.182,129.558C98.827,134.864 102.731,147.455 102.731,147.455L90.197,147.455C90.197,147.455 94.101,134.864 95.747,129.558Z" style="fill:rgb(74,74,74);"/>
            </g>
            <g transform="matrix(0.707107,-0.707107,0.707107,0.707107,-38.9731,92.8542)">
                <path d="M58.168,129.631L64.849,112.65L79.35,127.151L62.369,133.832L58.168,129.631Z" style="fill:rgb(216,216,216);"/>
            </g>
        </g>
    </g>
</svg>
